icons/keydb-light.svg

<svg width="256" height="256" viewBox="0 0 256 256" fill="none" xmlns="http://www.w3.org/2000/svg">
<rect width="256" height="256" rx="60" fill="#F4F2ED"/>
<polygon opacity="0.85" points="128.000 40.444, 52.445 171.273, 203.556 171.273, 128.000 40.444" fill="#FFFF00"/>
<path d="M126.123 218.038L50.6205 174.447C49.4435 173.77 48.7847 172.54 48.7835 171.273H48.7681V84.066C48.7681 82.5816 49.6483 81.3029 50.9146 80.7223L126.176 37.2706C127.365 36.5876 128.777 36.646 129.876 37.3008L205.38 80.8918C206.557 81.5684 207.216 82.799 207.217 84.066H207.232V171.273C207.232 172.757 206.352 174.036 205.086 174.616L129.824 218.069C128.635 218.752 127.223 218.693 126.123 218.038ZM56.1208 169.169L128 210.668L199.88 169.169V86.1702L128 44.6711L56.1208 86.1702V169.169Z" fill="#131313"/>
<path d="M128 47.7783L58.8025 167.597H197.197L128 47.7783ZM49.2703 169.435L124.8 38.6508C125.111 38.0949 125.571 37.6127 126.162 37.2706C127.914 36.2558 130.158 36.8533 131.174 38.6068L206.604 169.217C207.001 169.804 207.232 170.512 207.232 171.273C207.232 173.303 205.586 174.949 203.556 174.949H52.4442V174.941C51.8192 174.942 51.186 174.783 50.6065 174.447C48.8537 173.432 48.2553 171.188 49.2703 169.435Z" fill="#131313"/>
<path d="M50.6205 87.2398C48.8678 86.2325 48.2632 83.9945 49.2705 82.2418C50.2782 80.489 52.5157 79.8845 54.2685 80.8918L128 123.444L201.732 80.8918C203.485 79.8845 205.723 80.489 206.73 82.2418C207.737 83.9945 207.132 86.2325 205.38 87.2398L129.876 130.813C128.776 131.468 127.365 131.526 126.176 130.843L50.6205 87.2398Z" fill="#131313"/>
<path d="M131.676 214.895C131.676 216.925 130.03 218.571 128 218.571C125.97 218.571 124.324 216.925 124.324 214.895V127.669C124.324 125.639 125.97 123.993 128 123.993C130.03 123.993 131.676 125.639 131.676 127.669V214.895Z" fill="#131313"/>
<path d="M203.556 180.717C208.771 180.717 213 176.49 213 171.273C213 166.057 208.771 161.829 203.556 161.829C198.34 161.829 194.111 166.057 194.111 171.273C194.111 176.49 198.34 180.717 203.556 180.717Z" fill="#131313"/>
<path d="M203.556 93.5104C208.771 93.5104 213 89.2816 213 84.066C213 78.8499 208.771 74.6217 203.556 74.6217C198.34 74.6217 194.111 78.8499 194.111 84.066C194.111 89.2816 198.34 93.5104 203.556 93.5104Z" fill="#131313"/>
<path d="M52.4442 93.5104C57.6602 93.5104 61.8891 89.2816 61.8891 84.066C61.8891 78.8499 57.6602 74.6217 52.4442 74.6217C47.2289 74.6217 43 78.8499 43 84.066C43 89.2816 47.2289 93.5104 52.4442 93.5104Z" fill="#131313"/>
<path d="M52.4442 180.717C57.6602 180.717 61.8891 176.49 61.8891 171.273C61.8891 166.057 57.6602 161.829 52.4442 161.829C47.2289 161.829 43 166.057 43 171.273C43 176.49 47.2289 180.717 52.4442 180.717Z" fill="#131313"/>
<path d="M128 224.339C133.216 224.339 137.445 220.111 137.445 214.895C137.445 209.679 133.216 205.451 128 205.451C122.784 205.451 118.556 209.679 118.556 214.895C118.556 220.111 122.784 224.339 128 224.339Z" fill="#131313"/>
<path d="M128 137.114C133.216 137.114 137.445 132.885 137.445 127.669C137.445 122.453 133.216 118.225 128 118.225C122.784 118.225 118.556 122.453 118.556 127.669C118.556 132.885 122.784 137.114 128 137.114Z" fill="#131313"/>
<path d="M128 49.8883C133.216 49.8883 137.445 45.6602 137.445 40.4441C137.445 35.2281 133.216 31 128 31C122.784 31 118.556 35.2281 118.556 40.4441C118.556 45.6602 122.784 49.8883 128 49.8883Z" fill="#131313"/>
</svg>

<svg xmlns="http://www.w3.org/2000/svg" width="256" height="256" fill="none"><rect width="256" height="256" fill="#F4F2ED" rx="60"/><path fill="#FF0" d="M128 40.444 52.445 171.273h151.111z" opacity=".85"/><path fill="#131313" d="m126.123 218.038-75.502-43.591a3.66 3.66 0 0 1-1.838-3.174h-.015V84.066c0-1.484.88-2.763 2.147-3.344l75.261-43.451a3.66 3.66 0 0 1 3.7.03l75.504 43.59a3.66 3.66 0 0 1 1.837 3.175h.015v87.207c0 1.484-.88 2.763-2.146 3.343l-75.262 43.453a3.66 3.66 0 0 1-3.701-.031m-70.002-48.869L128 210.668l71.88-41.499V86.17L128 44.671l-71.88 41.5z"/><path fill="#131313" d="M128 47.778 58.803 167.597h138.394zM49.27 169.435 124.8 38.651a3.668 3.668 0 0 1 6.374-.044l75.43 130.61a3.676 3.676 0 0 1-3.048 5.732H52.444v-.008a3.668 3.668 0 0 1-3.174-5.506"/><path fill="#131313" d="M50.62 87.24a3.661 3.661 0 0 1 3.649-6.348L128 123.444l73.732-42.552a3.66 3.66 0 0 1 3.648 6.348l-75.504 43.573a3.66 3.66 0 0 1-3.7.03z"/><path fill="#131313" d="M131.676 214.895a3.676 3.676 0 0 1-7.352 0v-87.226a3.676 3.676 0 0 1 7.352 0zm71.88-34.178a9.444 9.444 0 0 0 0-18.888c-5.216 0-9.445 4.228-9.445 9.444s4.229 9.444 9.445 9.444m0-87.207a9.445 9.445 0 1 0-.001-18.888 9.445 9.445 0 0 0 .001 18.888m-151.112 0c5.216 0 9.445-4.228 9.445-9.444s-4.229-9.444-9.445-9.444a9.445 9.445 0 0 0 0 18.888m0 87.207a9.444 9.444 0 1 0 0-18.888 9.444 9.444 0 0 0 0 18.888"/><path fill="#131313" d="M128 224.339c5.216 0 9.445-4.228 9.445-9.444s-4.229-9.444-9.445-9.444a9.444 9.444 0 0 0-9.444 9.444 9.444 9.444 0 0 0 9.444 9.444m0-87.225a9.445 9.445 0 1 0 0-18.89 9.445 9.445 0 0 0 0 18.89m0-87.226c5.216 0 9.445-4.228 9.445-9.444S133.216 31 128 31a9.444 9.444 0 0 0-9.444 9.444A9.444 9.444 0 0 0 128 49.888"/></svg>
